public/img/GamesList/star-stroke.svg

<svg fill="none" height="13" viewBox="0 0 14 13" width="14" xmlns="http://www.w3.org/2000/svg"><path clip-rule="evenodd" d="m8.44696 5.00688-1.44696-2.93345-1.44697 2.93345-3.23753.47052 2.34278 2.28412-.5532 3.22358 2.89492-1.52198 2.89492 1.52198-.55321-3.22358 2.34279-2.28412zm5.01864.36339-2.8703 2.79844.6781 3.95159c.0469.2718-.1359.5297-.4078.5765-.1078.0188-.2203.0016-.3172-.05l-3.5484-1.8656-3.54844 1.8656c-.08249.0436-.17554.0632-.26859.0565-.09305-.0066-.18238-.0392-.25786-.094s-.13409-.1297-.16919-.2161c-.03509-.0865-.04526-.181-.02936-.2729l.67813-3.95159-2.870316-2.79844c-.095047-.09265-.149424-.21925-.151182-.35197s.049247-.26071.141807-.35584c.076562-.07813.176562-.12969.285937-.14532l3.967184-.57656 1.77344-3.595311c.12344-.2468745.42344-.34843703.67031-.226562.09844.048437.17813.128125.22656.226562l1.77344 3.595311 3.96723.57656c.2734.04063.464.29375.4218.56719-.0156.10938-.0672.20938-.1453.28594zm-2.369 6.24663-.0052-.0027c.0017.0009.0035.0018.0052.0027z" fill="#797c86" fill-rule="evenodd"/></svg>

<svg width="14" height="13" viewBox="0 0 14 13" fill="none" xmlns="http://www.w3.org/2000/svg">
<path fill-rule="evenodd" clip-rule="evenodd" d="M8.44696 5.00695L7 2.07349L5.55303 5.00695L2.3155 5.47747L4.65828 7.76158L4.10508 10.9852L7 9.46318L9.89492 10.9852L9.34171 7.76158L11.6845 5.47747L8.44696 5.00695ZM13.4656 5.37033L10.5953 8.16877L11.2734 12.1203C11.3203 12.3922 11.1375 12.65 10.8656 12.6969C10.7578 12.7156 10.6453 12.6985 10.5484 12.6469L7 10.7813L3.45156 12.6469C3.36907 12.6904 3.27602 12.71 3.18297 12.7034C3.08992 12.6967 3.00059 12.6642 2.92511 12.6094C2.84963 12.5545 2.79102 12.4797 2.75592 12.3932C2.72083 12.3068 2.71066 12.2123 2.72656 12.1203L3.40469 8.16877L0.534374 5.37033C0.439327 5.27768 0.38495 5.15108 0.383192 5.01836C0.381434 4.88564 0.432439 4.75765 0.524999 4.66252C0.601561 4.58439 0.701561 4.53283 0.810936 4.5172L4.77812 3.94064L6.55156 0.34533C6.675 0.0984555 6.975 -0.00310699 7.22187 0.118768C7.32031 0.167205 7.4 0.246893 7.44843 0.34533L9.22187 3.94064L13.1891 4.5172C13.4625 4.55783 13.6531 4.81095 13.6109 5.08439C13.5953 5.19377 13.5437 5.29377 13.4656 5.37033ZM11.0966 11.617L11.0914 11.6142C11.0931 11.6152 11.0949 11.6161 11.0966 11.617Z" fill="white"/>
</svg>
